X:1
T:C minor Oliver Holden, 1800
T:Anne Steele, 1760 88. 88. (L. M.)
T:Bright Reversion No copyright. Based on edition in Plain Psalmody, 1800.
%%score [ 1 2 3 4 ]
L:1/8
M:3/4
K:Eb
V:1 treble nm="Treble" snm="Tr."
V:2 treble nm="Counter" snm="C."
V:3 treble-8 nm="Tenor" snm="T."
V:4 bass nm="Bass" snm="B."
V:1
 C2 | (G2 F2) D2 | C4 G2 | (c2 dc) =B2 | c4 c2 | (A2 G2) F2 | B4 d2 | (G2 F2) E2 | (E2 D4) | %9
w: 1.~When|con- * scious|grief la-|ments~ * * sin-|cere, And|pours * the|pen- i-|te- * tial|tear, *|
 F2 FG AB | cE C>D EF | GA BB, E2- | E4 F2 | GcB/A/G/F/ E>F | G F/E/ D3 D ||[M:4/4] C6 E2 | %16
w: Hope points to your de-|jec- ted eyes, The bright re-|ver- sion in the skies,~|* The|bright~ * * * * * ~~re- *|ver- sion * in the|skies. There|
 E2 E2 E2 E2 | B2 B2 B2 B2 | e2 e2 d2 d2 | (c3 ded) c=B | G6 G2 | c=B cd c2 G2 | c=B cd e3 f | %23
w: shall your eyes with|rap- ture view The|glor- ious friend that|died~ * * * for *|you, That|died * to * ran- som,|died * to * raise To|
 ed c=B c2 G2 | c2 d2 e3 f | ed c=B cd ed | c4 =B4 | c8 |] %28
w: crowns * of * joy, and|songs of praise, To|crowns * of * joy, * and *|songs of|praise.|
V:2
 E2 | (E2 F2) G2 | E4 E2 | (E2 FE) D2 | E4 G2 | (F2 G2) A2 | G4 =B2 | (c2 c2) c2 | c6 | G2 FG AB | %10
w: 2.~In|vain * the|sons of|wealth~ * * and|pride De-|spise * your|lot, your|hopes * de-|ride:|In vain they boast their|
 AG E>F GA | GF EE G2- | G4 G2 | (EG A2) G2 | EF G3 G ||[M:4/4] G6 E2 | G2 G2 G2 G2 | D2 D2 E2 E2 | %18
w: lit- tle stores, Tri- fles are|theirs, a king- dom yours,~|* Tri-|fles~ * * are|theirs, a king- dom|yours. A|king- dom of im-|mense de- light, Where|
 G2 G2 G2 G2 | E6 E2 | E6 E2 | EF EF G2 G2 | EF EF G3 A | =B2 G2 G2 E2 | E2 G2 G3 F | GF ED EF GA | %26
w: health and peace and|joy u-|nite, Where|un- * de- * clin- ing|plea- * sures * rise, And|eve- ry wish hath|full sup- plies, And|eve- * ry * wish * hath *|
 G4 G4 | G8 |] %28
w: full sup-|plies.|
V:3
 G2 | (E2 D2) F2 | G4 G2 | G4 G2 | G4 e2 | (c2 B2) A2 | G4 F2 | (E2 F2) G2 | G6 | B2 Bd dd | %10
w: 3.~A|king- * dom|which can|ne'er de-|cay, While|time * sweeps|earth- ly|thrones * a-|way;|The state which power and|
 ec G>D EF | GA BB, E2- | E4 B2 | (e2 g2) c2 | ec =B3 B ||[M:4/4] c6 c2 | G2 G2 G2 G2 | %17
w: truth sus- tain, Un- moved, for-|ev- er must re- main,~|* Un-|moved,~ * for-|ev- er must re-|main. Ye|hum- ble souls, com-|
 E2 G2 e2 e2 | B2 B2 G2 G2 | (e3 fgf) ed | c6 c2 | ed ef e2 d2 | ed c=B c3 d | G2 e2 e2 c2 | %24
w: plain no more; Let|faith sur- vey your|fu- * * * ture *|store; How|hap- * py, * how di-|vine- * ly * blest, The|sa- cred words of|
 e2 B2 B3 B | B2 e2 e2 c2 | G4 G4 | G8 |] %28
w: truth at- test, The|sa- cred words of|truth at-|test.|
V:4
 C,2 | (C,2 =B,,2) G,,2 | C,4 C,2 | (C,2 =B,,C,) G,,2 | C,4 C,2 | C,4 D,2 | E,4 D,2 | %7
 (E,2 D,2) C,2 | G,,6 | D,2 B,,G,, D,D, | C,C, C,>D, E,F, | G,A, B,B,, E,2- | E,4 D,2 | C,4 C,2 | %14
 C,C, G,,3 G,, ||[M:4/4] C,6 C,2 | C,2 C,2 C,2 C,2 | B,,2 B,,2 E,2 E,2 | E,2 E,2 G,2 G,2 | %19
 G,4 G,4 | C,6 C,2 | G,2 G,2 G,2 G,2 | G,2 G,2 C3 G, | E,2 G,2 C,2 C,2 | A,,2 B,,2 E,3 B,, | %25
 E,2 G,2 C,2 C,2 | G,4 G,,4 | C,8 |] %28

